X: 1
T: KANTSCHUKOFF -- REEL
B: Ryan's Mammoth Collection of Fiddle Tunes
R: reel
M: C|
L: 1/8
Z: Contributed 20010830175157 by John Chambers jmchambers:rcn.net
K: A
((3uEFG) \
| AEcA ecae | fe^de fecA | GEBE dBge | bagf edcB \
| AEcA ecae | fe^de bagf | gbeg fa^df | {f}e^def e2 :|
|: z2 \
| vEFGA BcdB | Ae^de f2(ec) | EFGA BcdB | eaec A2{g}ka2 \
| AGBA cBdc | e^dfe gfaf | eafd cABG | Aaec A2 :|
